lib/preview/nrk-logo-preview-nrk-1-with-bg.svg

<svg width="54" height="24" viewBox="0 0 54 24" fill="none" xmlns="http://www.w3.org/2000/svg">
<rect width="54" height="24" fill="#0A2343"/>
<path d="M6.00425 17.9999V6.00103H9.94144V17.9999H6.00425ZM15.2981 7.91072L17.5623 17.9999H13.2534L10.5497 6.00103H12.9664C13.5206 5.99384 14.0583 6.18919 14.4788 6.55033C14.8999 6.89632 15.1892 7.37664 15.2981 7.91072ZM18.1538 17.9999V6.00103H22.091V17.9999H18.1538ZM25.0647 10.564C24.6405 10.5682 24.223 10.4572 23.8568 10.2429C23.4955 10.0341 23.1953 9.7339 22.9865 9.37254C22.772 9.00627 22.661 8.5887 22.6652 8.16426C22.6604 7.7424 22.7715 7.32732 22.9865 6.96437C23.1976 6.60693 23.4974 6.31003 23.8568 6.10246C24.2231 5.88844 24.6405 5.77745 25.0647 5.78132C25.4865 5.77678 25.9014 5.88787 26.2645 6.10246C26.6203 6.31185 26.9169 6.6085 27.1263 6.96437C27.3411 7.32742 27.4522 7.74243 27.4476 8.16426C27.4515 8.58867 27.3405 9.00617 27.1263 9.37254C26.9191 9.73231 26.6222 10.0322 26.2645 10.2429C25.9013 10.4579 25.4861 10.569 25.0642 10.564H25.0647ZM28.0559 17.9999V6.00103H31.9934V17.9999H28.0559ZM36.978 12.5582C36.9891 12.5698 37.0735 12.7078 37.2314 12.9722C37.3893 13.2366 37.5949 13.5746 37.8482 13.9862C38.1017 14.3976 38.3691 14.8342 38.6506 15.2959C38.932 15.7577 39.1969 16.1943 39.4451 16.6057C39.6923 17.0171 39.974 17.4819 40.29 17.9999H35.9641C35.6935 17.5605 35.4484 17.1634 35.2287 16.8085C35.0091 16.4536 34.7756 16.0705 34.5281 15.6593C34.2801 15.2484 34.0348 14.8485 33.7925 14.4594C33.5501 14.0703 33.3418 13.7296 33.1675 13.437C32.9925 13.1443 32.8713 12.9471 32.8039 12.8455C32.6368 12.5934 32.5379 12.3022 32.5169 12.0005C32.5337 11.7109 32.6269 11.4309 32.787 11.189C32.8546 11.0764 32.9785 10.8764 33.1588 10.5891C33.339 10.3018 33.5503 9.96099 33.7925 9.56666C34.0347 9.17233 34.2799 8.76954 34.5281 8.35831C34.7763 7.94708 35.0098 7.56117 35.2287 7.20064C35.4488 6.84049 35.6939 6.44053 35.9641 6.00075H40.29L36.9439 11.4594C36.8403 11.6215 36.782 11.8083 36.7749 12.0005C36.786 12.2023 36.8565 12.3963 36.9774 12.5582H36.978Z" fill="white"/>
<path d="M47.0942 5.99994C46.8238 6.13514 46.5674 6.26754 46.3252 6.39711C46.0829 6.52668 45.8463 6.6478 45.6154 6.76047C45.3844 6.87314 45.1506 6.98581 44.914 7.09848C44.6774 7.21116 44.4351 7.31256 44.1873 7.4027C43.9394 7.49302 43.6746 7.58315 43.3929 7.6731L43.7647 9.10966C44.1028 9.00826 44.4099 8.90685 44.6861 8.80544C44.9565 8.70658 45.2215 8.59375 45.4801 8.46743C45.7337 8.34349 45.9872 8.20829 46.2407 8.06181L46.2491 8.05674V17.9999H48.0071V6.00051L47.0942 5.99994Z" fill="#8BB5EB"/>
</svg>

<svg xmlns="http://www.w3.org/2000/svg" viewBox="0 0 54 24"><path fill="#0A2343" d="M0 0h54v24H0z"/><path fill="#fff" d="M6.004 18V6h3.937V18H6.004Zm9.294-10.09L17.562 18h-4.309L10.55 6h2.416a2.276 2.276 0 0 1 1.513.55c.42.345.71.826.82 1.36ZM18.154 18V6h3.937V18h-3.937Zm6.91-7.436a2.381 2.381 0 0 1-2.4-2.4 2.303 2.303 0 0 1 .323-1.2 2.411 2.411 0 0 1 3.278-.862c.355.21.652.506.861.862.215.363.326.778.322 1.2a2.4 2.4 0 0 1-1.183 2.079 2.303 2.303 0 0 1-1.2.321ZM28.057 18V6h3.937V18h-3.937Zm8.922-5.442c.011.012.096.15.253.414.158.265.364.603.617 1.014a327.152 327.152 0 0 1 1.597 2.62c.247.411.529.876.845 1.394h-4.326c-.27-.44-.516-.837-.735-1.192-.22-.354-.453-.738-.7-1.149-.249-.41-.494-.81-.737-1.2-.242-.389-.45-.73-.625-1.022a18.04 18.04 0 0 0-.363-.591 1.75 1.75 0 0 1-.287-.845c.017-.29.11-.57.27-.812.068-.113.191-.313.372-.6a182.106 182.106 0 0 0 1.37-2.23c.247-.412.48-.798.7-1.158l.735-1.2h4.326l-3.346 5.458a1.079 1.079 0 0 0-.17.542c.012.201.082.395.203.557h.001Z"/><path fill="#8BB5EB" d="M47.094 6c-.27.135-.527.268-.769.397-.242.13-.479.25-.71.363-.23.113-.464.226-.701.338a8.242 8.242 0 0 1-.727.305c-.248.09-.512.18-.794.27l.372 1.437c.338-.102.645-.203.921-.305.27-.098.535-.211.794-.338.254-.124.507-.259.76-.405l.01-.005V18h1.757V6h-.913Z"/></svg>
